!!!!SEGMENT: pl-sa--575-a-ix-55--011_anonim--dumka.krn
!!!cenid: 18xx:625
!!!COM: Anonim
!!!COM-rismid: pe30004985
!!!CDT:
!!!CNT:
!!!OTL: Dumka
!!!PDT:
!!!AGN: Secular; Dumka
!!!SMS-siglum: PL-SA
!!!SMS-shelfmark: 575/A IX 55
!!!SMS-shelfwork: 011 W
!!!SMS-variant:
!!!SMS-altvar:
!!!NIFC-rismid: 1001109849
!!!URL-scan: http://bc.bdsandomierz.pl/dlibra/publication/1381/edition/1349/content
!!!ONB-nifc: Str. 6, s. 1
**kern
*I'keyb
*clefG2
*k[b-]
*M2/4
!LO:TX:a:i:t=Dumka
!LO:TX:a:t=P:problem: tytuł na lewym marginesie, przed pięciolinią
!LO:TX:a:t=P:problem: metrum z kreską ułamkową
4a/
=1
4.aa\
8bb-\
=2
4.gg\
8aa\
=3
(>8ff\L
8ee\)
8dd\
8cc#X\J
=4
8cc\L
8ee\
8ff\
8gg\J
=5
8aa\L
8aa\J
16aa\LL
(>16ccc\
16bb-\)
16aa\JJ
=6
8gg\L
8gg\J
16gg\LL
16bb-\
16aa\
16gg\JJ
=7
*Xtuplet
24ff\LL
24gg\
24ff\JJ
16ee\LL
16dd\JJ
16cc#X\LL
16bb-\
16aa\
16cc#\JJ
!LO:LB:g=original
=8
4ccT>\
8dd\
8r
=9:|!|:
(>8a\L
8ee\J)
8cc#X\L
8a\J
=10
(>8a\L
8ee\J)
8cc#X\L
8a\J
=11
8dd\L
8eet>\
8ff\
8gg\J
=12
8aa\L
8ff\
8eet>\
8dd\J
=13
8aa\L
8aa\J
16aa\LL
(>16ccc\
16bb-\)
16aa\JJ
=14
8gg\L
8gg\J
16gg\LL
(>16bb-\
16aa\
16gg\JJ)
=15
(>24ff\LL
24gg\
24ff\JJ)
16ee\LL
16dd\JJ
16cc#\LL
16bb-\
16aa\
16cc#\JJ
=16
4cc#t>\
4dd\
==
*-
!!!RDF**kern: > = above
!!!RDF**kern: < = below
!!!EED: Mateusz Mrugas
!!!EST: 2020-12-10
!!!ENC: Tomasz Grochalski
!!!END: 2020-20-06
